!!!COM:	Josquin des Pres?
**kern	**kern
*part2	*part1
*staff2	*staff1
*clefF4	*clefGv2
*k[b-]	*k[b-]
*M2/1	*M2/1
=1-	=1-
0D	0r
=2	=2
1D	0r
[1D	.
=3	=3
2D]	0A
4C	.
4BB-	.
2C	.
[2D	.
=4	=4
4D]	1A
4E	.
1F	.
.	[1A
4E	.
4D	.
=5	=5
2C	2A]
2D	4G
.	4F
2E	2G
[2D	2A
=6	=6
2D]	1.B-
2GG	.
1GG	.
.	2G
=7	=7
2r	1.A
2.D	.
4E	.
[2F	2D
=8	=8
2F]	[0D
2BB-	.
2BB-	.
[2F	.
=9	=9
2F]	1D]
4E	.
4D	.
2C	2r
2D	[2A
=10	=10
1E	2A]
.	2G
1D	2B-
.	[2A
=11	=11
2r	2A]
1D	4G
.	4F
.	1E
2C	.
=12	=12
2E	2r
1D	2A
.	2A
4C	2A
4BB-	.
=13	=13
1AA	2c
.	4B-
.	4A
2r	2G
2D	2A
=14	=14
2D	1B-
2D	.
2F	2A
4E	[2c
4D	.
=15	=15
2C	2c]
2D	4B-
.	4A
1E	2.G
.	4A
=16	=16
[0D	2.B-
.	8AL
.	8GJ
.	2A
.	[2B-
=17	=17
1D]	4B-]
.	8AL
.	8GJ
.	2A
2r	1D
2D	.
=18	=18
2D	2r
2C	2A
2D	2A
2GG	2G
=19	=19
1D	2A
.	2D
2r	1A
2D	.
=20	=20
2D	2r
2C	2A
2D	2A
2GG	2G
=21	=21
[0D	2A
.	2D
.	2A
.	[2B-
=22	=22
0D_	2B-]
.	4A
.	4G
.	2B-
.	2A
=23	=23
0D]	0A
==	==
*-	*-
